Newaita-dark/actions/24/remove-link.svg

<svg height="24" viewBox="0 0 24 24" width="24" xmlns="http://www.w3.org/2000/svg"><g fill="#e0e0e0"><path d="m7.9375 2.171875c-3.296875 0-5.953125 2.65625-5.953125 5.953125 0 3.300781 2.65625 5.953125 5.953125 5.953125h1.488281c.277344 0 .496094-.21875.496094-.496094v-.992187c0-.273438-.21875-.496094-.496094-.496094h-1.488281c-2.199219 0-3.96875-1.769531-3.96875-3.96875s1.769531-3.96875 3.96875-3.96875h1.488281c.277344 0 .496094-.222656.496094-.496094v-.992187c0-.273438-.21875-.496094-.496094-.496094zm6.449219 0c-.273438 0-.496094.222656-.496094.496094v.992187c0 .273438.222656.496094.496094.496094h1.488281c2.199219 0 3.96875 1.769531 3.96875 3.96875s-1.769531 3.96875-3.96875 3.96875h-1.488281c-.273438 0-.496094.222656-.496094.496094v.992187c0 .277344.222656.496094.496094.496094h1.488281c3.300781 0 5.957031-2.652344 5.957031-5.953125 0-3.296875-2.65625-5.953125-5.957031-5.953125zm0 0"/><path d="m8.433594 7.132812h6.945312c.277344 0 .496094.222657.496094.496094v.992188c0 .273437-.21875.496094-.496094.496094h-6.945312c-.273438 0-.496094-.222657-.496094-.496094v-.992188c0-.273437.222656-.496094.496094-.496094zm0 0"/><path d="m14.367188 15.546875.703124.703125c.191407.191406.191407.507812 0 .699219l-4.914062 4.914062c-.191406.191407-.507812.191407-.699219 0l-.703125-.703125c-.195312-.195312-.195312-.507812 0-.703125l4.910156-4.910156c.195313-.195313.507813-.195313.703126 0zm0 0"/><path d="m15.070312 21.160156-.703124.703125c-.195313.191407-.507813.191407-.703126 0l-4.910156-4.914062c-.195312-.191407-.195312-.507813 0-.699219l.703125-.703125c.191407-.195313.507813-.195313.699219 0l4.914062 4.910156c.191407.195313.191407.507813 0 .703125zm0 0"/></g></svg>

<?xml version="1.0" encoding="UTF-8"?>
<svg xmlns="http://www.w3.org/2000/svg" xmlns:xlink="http://www.w3.org/1999/xlink" width="24px" height="24px" viewBox="0 0 24 24" version="1.1">
<g id="surface1">
<path style=" stroke:none;fill-rule:nonzero;fill:rgb(87.843138%,87.843138%,87.843138%);fill-opacity:1;" d="M 7.9375 2.171875 C 4.640625 2.171875 1.984375 4.828125 1.984375 8.125 C 1.984375 11.425781 4.640625 14.078125 7.9375 14.078125 L 9.425781 14.078125 C 9.703125 14.078125 9.921875 13.859375 9.921875 13.582031 L 9.921875 12.589844 C 9.921875 12.316406 9.703125 12.09375 9.425781 12.09375 L 7.9375 12.09375 C 5.738281 12.09375 3.96875 10.324219 3.96875 8.125 C 3.96875 5.925781 5.738281 4.15625 7.9375 4.15625 L 9.425781 4.15625 C 9.703125 4.15625 9.921875 3.933594 9.921875 3.660156 L 9.921875 2.667969 C 9.921875 2.394531 9.703125 2.171875 9.425781 2.171875 Z M 14.386719 2.171875 C 14.113281 2.171875 13.890625 2.394531 13.890625 2.667969 L 13.890625 3.660156 C 13.890625 3.933594 14.113281 4.15625 14.386719 4.15625 L 15.875 4.15625 C 18.074219 4.15625 19.84375 5.925781 19.84375 8.125 C 19.84375 10.324219 18.074219 12.09375 15.875 12.09375 L 14.386719 12.09375 C 14.113281 12.09375 13.890625 12.316406 13.890625 12.589844 L 13.890625 13.582031 C 13.890625 13.859375 14.113281 14.078125 14.386719 14.078125 L 15.875 14.078125 C 19.175781 14.078125 21.832031 11.425781 21.832031 8.125 C 21.832031 4.828125 19.175781 2.171875 15.875 2.171875 Z M 14.386719 2.171875 "/>
<path style=" stroke:none;fill-rule:nonzero;fill:rgb(87.843138%,87.843138%,87.843138%);fill-opacity:1;" d="M 8.433594 7.132812 L 15.378906 7.132812 C 15.65625 7.132812 15.875 7.355469 15.875 7.628906 L 15.875 8.621094 C 15.875 8.894531 15.65625 9.117188 15.378906 9.117188 L 8.433594 9.117188 C 8.160156 9.117188 7.9375 8.894531 7.9375 8.621094 L 7.9375 7.628906 C 7.9375 7.355469 8.160156 7.132812 8.433594 7.132812 Z M 8.433594 7.132812 "/>
<path style=" stroke:none;fill-rule:nonzero;fill:rgb(87.843138%,87.843138%,87.843138%);fill-opacity:1;" d="M 14.367188 15.546875 L 15.070312 16.25 C 15.261719 16.441406 15.261719 16.757812 15.070312 16.949219 L 10.15625 21.863281 C 9.964844 22.054688 9.648438 22.054688 9.457031 21.863281 L 8.753906 21.160156 C 8.558594 20.964844 8.558594 20.652344 8.753906 20.457031 L 13.664062 15.546875 C 13.859375 15.351562 14.171875 15.351562 14.367188 15.546875 Z M 14.367188 15.546875 "/>
<path style=" stroke:none;fill-rule:nonzero;fill:rgb(87.843138%,87.843138%,87.843138%);fill-opacity:1;" d="M 15.070312 21.160156 L 14.367188 21.863281 C 14.171875 22.054688 13.859375 22.054688 13.664062 21.863281 L 8.753906 16.949219 C 8.558594 16.757812 8.558594 16.441406 8.753906 16.25 L 9.457031 15.546875 C 9.648438 15.351562 9.964844 15.351562 10.15625 15.546875 L 15.070312 20.457031 C 15.261719 20.652344 15.261719 20.964844 15.070312 21.160156 Z M 15.070312 21.160156 "/>
</g>
</svg>
